packages/astro-components-stencil/src/icons/view-column.svg

<svg xmlns="http://www.w3.org/2000/svg" viewBox="0 0 24 24"><g xmlns="http://www.w3.org/2000/svg" id="view-column" fill-rule="nonzero">
            <path d="M11 18h3c.55 0 1-.45 1-1V6c0-.55-.45-1-1-1h-3c-.55 0-1 .45-1 1v11c0 .55.45 1 1 1zm-6 0h3c.55 0 1-.45 1-1V6c0-.55-.45-1-1-1H5c-.55 0-1 .45-1 1v11c0 .55.45 1 1 1zM16 6v11c0 .55.45 1 1 1h3c.55 0 1-.45 1-1V6c0-.55-.45-1-1-1h-3c-.55 0-1 .45-1 1z"/>
        </g></svg>

<svg width="24" height="24" viewBox="0 0 24 24" fill="none" xmlns="http://www.w3.org/2000/svg">
<path fill-rule="evenodd" clip-rule="evenodd" d="M5 18H8C8.55 18 9 17.55 9 17V6C9 5.45 8.55 5 8 5H5C4.45 5 4 5.45 4 6V17C4 17.55 4.45 18 5 18ZM11 18H14C14.55 18 15 17.55 15 17V6C15 5.45 14.55 5 14 5H11C10.45 5 10 5.45 10 6V17C10 17.55 10.45 18 11 18ZM16 17V6C16 5.45 16.45 5 17 5H20C20.55 5 21 5.45 21 6V17C21 17.55 20.55 18 20 18H17C16.45 18 16 17.55 16 17Z" fill="black"/>
</svg>
